X: 3070
T: KISSING IS BEST OF A'
Q:"Reel."
R: Reel.
%R:reel
B: James Kerr "Merry Melodies" v.3 p.10 #70
Z: 2016 John Chambers <jc:trillian.mit.edu>
M: C
L: 1/8
K: G
uc |:\
BGGc BGcG | BGGB gdec |\
BGGc BGdG | A=FFA c2(BA) ::\
(B/c/d) (df) gdec |
(B/c/d) df g2gd |\
[1 (B/c/d) (df) gdec | A=FFA c2(BA) :|\
[2 egdg cgBg | A=FFA c2(BA) |]

%%sep 1 1 500
%%sep 1 1 500

